X:1
T:8 Lieder und Gesänge, Op.57
T:Wenn du auch zuweilen lächelst
T:2. Wenn du nur zuweilen lächelst
T:8 Lieder und Gesänge, Op.57
T:Johannes Brahms
T:Georg Friedrich Daumer
T:Creative Commons copyright waiver (CC0 1.0 Universal)
T:Creative Commons copyright waiver (CC0 1.0 Universal)
C:Johannes Brahms
Z:Georg Friedrich Daumer
Z:Creative Commons copyright waiver (CC0 1.0 Universal)
L:1/8
M:9/8
K:Eb
V:1 treble nm="Singstimme\nVoice"
V:1
 G2 B A3 z2 f | e2 c B3 A2 z | z2 z (cB) g (fe) c | B2 c B3 =A2 z | c2 B e2 d (gd) B | %5
w: Wenn du nur zu\-|wei- len lä- chelst,|nur * zu- wei- * len|Küh- le fä- chelst|die\- ser un\- ge\- mess- * nen|
 =A2 z e2 d (gd) B | B3- B2 =A G3 | z2 z z2 z c2 B | B3 z2 z c2 B | B3- B2 B =A2 e | %10
w: Glut, die\- ser un\- * ge-|mess\- * nen Glut|in Ge\-|duld, in Ge\-|duld _ will ich mich|
 d3 B2 z _d2 c | c3 B2 z _d2 c | c3- c2 c =B2 f | f3 e2 z e2 e | (_g3 f3)"B7" e3 | (__e3 _d3) _c3 | %16
w: fas\- sen und dich|Al\- les, Al\- les,|Al\- * les trei\- ben|las\- sen, was der|Lie\- * be|we- * he|
 B2 z z2 z (e3- | e3 =d3) e3 | e6 B3 | _c6 B3 | G2 z z2 z z2 z | z9 | z9 | z9 | z9 |] %25
w: tut, was|_ _ der|Lie\- be|we\- he|tut.|||||

